apps/www/public/images/launchweek/launchweek-logo--dark.svg

<svg width="344" height="48" viewBox="0 0 344 48" fill="none" xmlns="http://www.w3.org/2000/svg">
<path d="M17.1646 35.2148V31.6001H6.85951V12.7339H3.05455V35.2148H17.1646ZM41.1797 35.2148H45.3334L36.582 12.7339H32.1746L23.4232 35.2148H27.4501L29.5429 29.5708H39.0553L41.1797 35.2148ZM34.2991 16.8559L37.7235 26.0512H30.8746L34.2991 16.8559ZM60.6598 35.6905C65.3843 35.6905 69.0624 32.805 69.0624 27.383V12.7339H65.2574V27.161C65.2574 30.3318 63.5452 32.0758 60.6598 32.0758C57.8061 32.0758 56.0621 30.3318 56.0621 27.161V12.7339H52.2889V27.383C52.2889 32.805 55.967 35.6905 60.6598 35.6905ZM97.8094 35.2148V12.7339H94.0044V28.683L83.7945 12.7339H78.9431V35.2148H82.7481V18.1877L93.8459 35.2148H97.8094ZM117.933 35.6905C123.672 35.6905 127.096 32.044 128.111 28.2391L124.623 27.0976C123.862 29.6342 121.706 32.044 117.933 32.044C114.096 32.044 110.481 29.2537 110.481 23.9902C110.481 18.5364 114.191 15.8413 117.901 15.8413C121.674 15.8413 123.767 18.0291 124.433 20.756L128.016 19.5511C127.001 15.6193 123.609 12.2583 117.901 12.2583C112.067 12.2583 106.581 16.6657 106.581 23.9902C106.581 31.3148 111.877 35.6905 117.933 35.6905ZM154.93 35.2148V12.7339H151.093V22.0243H140.535V12.7339H136.73V35.2148H140.535V25.6073H151.093V35.2148H154.93ZM198.503 29.2855L193.144 12.7339H189.181L183.917 29.1586L179.415 12.7339H175.419L181.793 35.2148H185.693L191.147 18.2194L196.6 35.2148H200.532L206.842 12.7339H202.91L198.503 29.2855ZM228.581 35.2148V31.6635H218.498V25.7024H227.63V22.2463H218.498V16.2852H228.581V12.7339H214.693V35.2148H228.581ZM251.792 35.2148V31.6635H241.709V25.7024H250.841V22.2463H241.709V16.2852H251.792V12.7339H237.904V35.2148H251.792ZM274.908 35.2148H279.696L270.501 22.6585L279.601 12.7339H274.591L264.92 23.5146V12.7339H261.115V35.2148H264.92V28.7464L267.901 25.4805L274.908 35.2148Z" fill="#EDEDED"/>
<rect x="304.023" y="4.10489" width="39.2199" height="39.2199" rx="5.85063" fill="url(#paint0_linear_440_13670)"/>
<path d="M328.398 18.3085C327.79 17.8825 326.755 17.5783 325.559 17.5783C321.725 17.5783 318.785 20.357 318.785 25.245C318.785 29.5854 321.401 31.3296 323.916 31.3296C326.492 31.3296 328.784 29.6665 328.784 26.8473C328.784 23.9875 326.877 22.3649 324.281 22.3649C322.537 22.3649 321.34 23.1965 320.813 24.0686C320.975 21.3711 322.699 19.3631 325.437 19.3631C326.431 19.3631 327.303 19.6471 327.79 19.931L328.398 18.3085ZM321.097 26.8473C321.097 25.0827 322.415 24.0686 323.936 24.0686C325.457 24.0686 326.776 25.0827 326.776 26.8473C326.776 28.5915 325.478 29.6056 323.936 29.6056C322.496 29.6056 321.097 28.5712 321.097 26.8473Z" fill="url(#paint1_linear_440_13670)"/>
<rect x="304.023" y="4.10489" width="39.2199" height="39.2199" rx="5.85063" stroke="url(#paint2_linear_440_13670)" stroke-width="0.780084"/>
<defs>
<linearGradient id="paint0_linear_440_13670" x1="315.781" y1="15.2945" x2="336.443" y2="59.1477" gradientUnits="userSpaceOnUse">
<stop stopColor="#14292C"/>
<stop offset="1" stop-color="#121212" stop-opacity="0"/>
</linearGradient>
<linearGradient id="paint1_linear_440_13670" x1="308.131" y1="-5.6969" x2="334.269" y2="-4.85975" gradientUnits="userSpaceOnUse">
<stop stopColor="#57796F"/>
<stop offset="1" stop-color="white"/>
</linearGradient>
<linearGradient id="paint2_linear_440_13670" x1="329.004" y1="3.79773" x2="340.003" y2="18.3613" gradientUnits="userSpaceOnUse">
<stop stopColor="#76A891" stop-opacity="0.11"/>
<stop offset="1" stop-color="#132525" stop-opacity="0.35"/>
</linearGradient>
</defs>
</svg>

<svg xmlns="http://www.w3.org/2000/svg" width="344" height="48" fill="none" viewBox="0 0 344 48"><path fill="#ededed" d="M17.165 35.215V31.6H6.86V12.734H3.055v22.48zm24.015 0h4.153l-8.751-22.481h-4.407l-8.752 22.48h4.027l2.093-5.643h9.512zm-6.88-18.36 3.424 9.196h-6.85zm26.36 18.836c4.724 0 8.402-2.886 8.402-8.308v-14.65h-3.805v14.428c0 3.17-1.712 4.915-4.597 4.915-2.854 0-4.598-1.744-4.598-4.915V12.734H52.29v14.649c0 5.422 3.678 8.308 8.37 8.308m37.15-.476V12.734h-3.806v15.949l-10.21-15.95h-4.85v22.482h3.804V18.188l11.098 17.027zm20.123.475c5.739 0 9.163-3.646 10.178-7.45l-3.488-1.142c-.761 2.536-2.917 4.946-6.69 4.946-3.837 0-7.452-2.79-7.452-8.054 0-5.454 3.71-8.149 7.42-8.149 3.773 0 5.866 2.188 6.532 4.915l3.583-1.205c-1.015-3.932-4.407-7.293-10.115-7.293-5.834 0-11.32 4.408-11.32 11.732 0 7.325 5.296 11.7 11.352 11.7m36.997-.475V12.734h-3.837v9.29h-10.558v-9.29h-3.805v22.48h3.805v-9.607h10.558v9.608zm43.573-5.93-5.359-16.551h-3.963l-5.264 16.425-4.502-16.425h-3.996l6.374 22.48h3.9l5.454-16.995 5.453 16.996h3.932l6.31-22.481h-3.932zm30.078 5.93v-3.552h-10.083v-5.96h9.132v-3.457h-9.132v-5.96h10.083v-3.552h-13.888v22.48zm23.211 0v-3.552h-10.083v-5.96h9.132v-3.457h-9.132v-5.96h10.083v-3.552h-13.888v22.48zm23.116 0h4.788l-9.195-12.557 9.1-9.924h-5.01l-9.671 10.78v-10.78h-3.805v22.48h3.805v-6.468l2.981-3.265z"/><rect width="39.22" height="39.22" x="304.023" y="4.105" fill="url(#a)" rx="5.851"/><path fill="url(#b)" d="M328.398 18.309c-.608-.427-1.643-.73-2.839-.73-3.834 0-6.774 2.778-6.774 7.666 0 4.34 2.616 6.085 5.131 6.085 2.576 0 4.868-1.663 4.868-4.483 0-2.86-1.907-4.482-4.503-4.482-1.744 0-2.941.832-3.468 1.704.162-2.698 1.886-4.706 4.624-4.706.994 0 1.866.284 2.353.568zm-7.301 8.538c0-1.764 1.318-2.778 2.839-2.778s2.84 1.014 2.84 2.778c0 1.744-1.298 2.759-2.84 2.759-1.44 0-2.839-1.035-2.839-2.759"/><rect width="39.22" height="39.22" x="304.023" y="4.105" stroke="url(#c)" stroke-width=".78" rx="5.851"/><defs><linearGradient id="a" x1="315.781" x2="336.443" y1="15.294" y2="59.148" gradientUnits="userSpaceOnUse"><stop/><stop offset="1" stop-color="#121212" stop-opacity="0"/></linearGradient><linearGradient id="b" x1="308.131" x2="334.269" y1="-5.697" y2="-4.86" gradientUnits="userSpaceOnUse"><stop/><stop offset="1" stop-color="#fff"/></linearGradient><linearGradient id="c" x1="329.004" x2="340.003" y1="3.798" y2="18.361" gradientUnits="userSpaceOnUse"><stop stop-opacity=".11"/><stop offset="1" stop-color="#132525" stop-opacity=".35"/></linearGradient></defs></svg>
